source/img/bestseller-tablet.svg

<svg width="61" height="61" viewBox="0 0 61 61" fill="none" xmlns="http://www.w3.org/2000/svg">
<path d="M61 0L30.5 30.5L0 61V33.7973L33.7973 0H61Z" fill="#D22856"/>
<path d="M21.9192 32.3147L20.9863 33.2476L15.9785 32.0392L17.1531 37.0808L16.2831 37.9509L14.9393 31.9087L9.37565 30.7244L10.2844 29.8157L14.8378 30.8598L13.8082 26.2919L14.6831 25.417L15.8384 30.9516L21.9192 32.3147ZM15.8722 24.2279L16.6408 23.4593L20.5706 27.3892C21.2956 28.1142 21.9289 28.7925 22.4702 29.4242L22.5089 29.3855L20.5754 19.5247L21.4745 18.6256L28.5414 25.6925L27.768 26.4659L23.8769 22.5748C23.2291 21.927 22.5766 21.2197 21.9192 20.4527L21.8757 20.4962L23.8382 30.3957L22.9391 31.2948L15.8722 24.2279ZM32.6549 21.579L31.8332 22.4007L25.4962 16.0637L23.2581 18.3017L22.5283 17.5718L27.826 12.2741L28.5559 13.004L26.3179 15.242L32.6549 21.579Z" fill="white"/>
</svg>

<svg width="61" height="61" fill="none" xmlns="http://www.w3.org/2000/svg"><path d="M61 0 30.5 30.5 0 61V33.8L33.8 0H61Z" fill="#D22856"/><path d="m21.92 32.31-.93.94-5.01-1.21 1.17 5.04-.87.87-1.34-6.04-5.56-1.19.9-.9 4.56 1.04-1.03-4.57.87-.87 1.16 5.53 6.08 1.36Zm-6.05-8.08.77-.77 3.93 3.93c.73.72 1.36 1.4 1.9 2.03l.04-.03-1.93-9.87.9-.9 7.06 7.07-.77.78-3.9-3.9c-.64-.64-1.3-1.35-1.95-2.12l-.04.05 1.96 9.9-.9.9-7.07-7.07Zm16.78-2.65-.82.82-6.33-6.34-2.24 2.24-.73-.73 5.3-5.3.73.73-2.24 2.24 6.33 6.34Z" fill="#fff"/></svg>
